material/.icons/material/file-move-outline.svg

<svg xmlns="http://www.w3.org/2000/svg" viewBox="0 0 24 24"><path d="M14 2H6c-1.1 0-2 .9-2 2v16c0 .41.12.8.34 1.12.07.11.16.21.25.29.36.37.86.59 1.41.59h7.53c-.53-.58-.92-1.25-1.18-2H6V4h7v5h5v3c.7 0 1.37.12 2 .34V8l-6-6m4 21l5-4.5-3-2.7-2-1.8v3h-4v3h4v3z"/></svg>

<?xml version="1.0" encoding="UTF-8"?><!DOCTYPE svg PUBLIC "-//W3C//DTD SVG 1.1//EN" "http://www.w3.org/Graphics/SVG/1.1/DTD/svg11.dtd"><svg xmlns="http://www.w3.org/2000/svg" xmlns:xlink="http://www.w3.org/1999/xlink" version="1.1" id="mdi-file-move-outline" width="24" height="24" viewBox="0 0 24 24"><path d="M14 2H6C4.9 2 4 2.9 4 4V20C4 20.41 4.12 20.8 4.34 21.12C4.41 21.23 4.5 21.33 4.59 21.41C4.95 21.78 5.45 22 6 22H13.53C13 21.42 12.61 20.75 12.35 20H6V4H13V9H18V12C18.7 12 19.37 12.12 20 12.34V8L14 2M18 23L23 18.5L20 15.8L18 14V17H14V20H18V23Z" /></svg>
